X:1
T:Varanasi, 12.9.12.9 D
T:Varanasi, 12.9.12.9 D
T:William Warren Bentley, 1871
T:Public Domain Courtesy of the Cyber Hymnal™
C:William Warren Bentley, 1871
Z:Public Domain
Z:Courtesy of the Cyber Hymnal™
%%score ( 1 2 ) ( 3 4 )
L:1/8
Q:1/4=100
M:4/4
K:F
V:1 treble 
V:2 treble 
V:3 bass 
V:4 bass 
V:1
 F[FG] | [FA]2 [FA][FA] [Ac]2 [GB][FA] | ([FA][EG])[EG][^D^F] [EG]2 [=FA][FB] | %3
 [Fc]2 [Fd][Fc] ([Ac][Bd]) [Ac]>[FA] | [EG]6 F[FG] | [FA]2 [FA][FA] [Ac]2 [GB][FA] | %6
 ([FA][EG])[EG][^D^F] [EG]2 [=FA][FB] | [Fc]2 [FB][FA] (GB)[FA][EG] | F6 [Fc][Fc] | %9
 [Fd]2 [Fd][Fd] [Fd]2 [Fd][Fd] | [Fc]2 [Fc][Fd] [Fc]2 [GB][FA] | [EG]2 [EG][EG] [EG]2 [Ec][GB] | %12
 [FA]6 F[FG] | [FA]2 [FA][FA] [Ac]2 [GB][FA] | ([FA][EG])[EG][^D^F] [EG]2 [=FA][FB] | %15
 [Fc]2 [Fd][GB] [FA]2 [EA][EG] | F6 |] %17
V:2
 F x | x8 | x8 | x8 | x6 F x | x8 | x8 | x4 F2 x2 | F6 x2 | x8 | x8 | x8 | x6 F x | x8 | x8 | x8 | %16
 F6 |] %17
V:3
 [F,A,][F,B,] | [F,C]2 [F,C][F,C] [F,C]2 [E,C][F,C] | [C,C]2 [C,C][C,C] [C,C]2 F,[F,G,] | %3
 [F,A,]2 [F,B,][F,A,] (CF) [F,F]>[F,C] | [C,C]6 [F,A,][F,B,] | %5
 [F,C]2 [F,C][F,C] [F,C]2 [E,C][F,C] | [C,C]2 [C,C][C,C] [C,C]2 F,[F,G,] | %7
 [F,A,]2 [F,D][F,C] [B,,D]2 [C,C][C,B,] | [F,A,]6 [F,A,][F,A,] | %9
 [B,,B,]2 [B,,B,][B,,B,] [B,,B,]2 [B,,B,][B,,B,] | [F,A,]2 [F,A,][F,B,] [F,A,]2 [E,C][F,C] | %11
 [C,C]2 [C,C][C,C] [C,C]2 [C,C][C,C] | [F,C]6 [F,A,][F,B,] | [F,C]2 [F,C][F,C] [F,C]2 [E,C][E,C] | %14
 [C,C]2 [C,C][C,C] [C,C]2 F,[F,G,] | [F,A,]2 [B,,B,][B,,D] [C,C]2 [C,C][C,B,] | [F,A,]6 |] %17
V:4
 x2 | x8 | x6 F, x | x4 F,2 x2 | x8 | x8 | x6 F, x | x8 | x8 | x8 | x8 | x8 | x8 | x8 | x6 F, x | %15
 x8 | x6 |] %17

